X: 18622
T: I Wish I Never Saw You
R: reel
M: 4/4
K: Gmajor
|:edBA G3A|B2Ac BGEF|GAGE DEGA|BddB A2Bd|
edBA G3A|B2Ac BGEF|GAGE DEGA|BGAB G3B:|
|:d3c BGBd|eaaf gfef|dedc BGBd|egfa g3e|
d3c BGBd|eaaf gfef|d3f e3g|faaf gfed:|

